X: 4283
T: Bobbin' John
R: three-two
M: 3/2
K: Edorian
|:B3G E2F2 G4|B3G E2G2 F2A2|B3G E2F2 G4|F3D D2G2 F2A2:|
|:G3B d2c2 B4|G3B d2c2 B2d2|e3d c2B2 A4|F3D D2G2 F2A2:|

